X: 31812
T: Patsy Hanley's
R: reel
M: 4/4
K: Dmajor
f2df edBd|f2 fe fg a2|f2 fd edBd|ABdf edBd|
f2df edBd|f2ed fa~a2|bf~f2 afdB|ABdf efdB||
AFDF E3F|DEFD E3B|A2FB AFAB|defd efdB|
AFDF E3F|DEFD E3B|A2FB AFAB|defe d3e||

